X:1
T:Barcelona, 77.77 D
T:Barcelona, 77.77 D
T:Anonymous, 1872
T:Public Domain Courtesy of the Cyber Hymnal™
C:Anonymous, 1872
Z:Public Domain
Z:Courtesy of the Cyber Hymnal™
%%score 1 ( 2 3 )
L:1/8
Q:1/4=80
M:4/4
K:D
V:1 treble 
V:2 bass 
V:3 bass 
V:1
 [FA]>[FA] [Fd][FA] [GB][FA] [FA]2 | [FA]>[FA] [GB][Bd] [Ac][GB] [FA]2 | %2
 [FA]>[FA] [Fd][FA] [Ad][Ae] [Af]2 | [Af]>[Af] [Ae][Ad] [GB][Gc] [Fd]2 | %4
 [Fd]>[Fd] [Fd][FA] [GB][FA] [FA]2 | [Fd]>[Fd] [Fd][Ad] [Ac][Ae] [Ae]2 | %6
 [Fd]>[Fd] [Fd][FA] [Ad][G=c] !fermata![GB]2 | [GB]>[GB] [Ge][Gd] [Fd][Ec] [Fd]2 |] %8
V:2
 [D,D]>[D,D] [D,D][D,D] [D,D][D,D] [D,D]2 | [D,D]>[D,D] [D,D][D,D] [D,D][D,D] [D,D]2 | %2
 [D,D]>[D,D] [D,D][D,D] [F,D][A,C] D2 | [D,D]>[D,D] [E,C][F,D] [G,D]A, [D,A,]2 | %4
 [D,A,]>[D,A,] [D,A,][D,D] [D,D][D,D] [D,D]2 | [D,A,]>[D,A,] [D,A,][F,D] [A,E][A,C] [A,C]2 | %6
 [D,A,]>[D,A,] [D,A,][D,D] [F,D][F,D] !fermata![G,D]2 | [G,D]>[G,D] [G,B,][G,B,] A,A, [D,A,]2 |] %8
V:3
 x8 | x8 | x6 D2 | x5 A, x2 | x8 | x8 | x8 | x4 A,A, x2 |] %8

